packages/rn-bitcoin-icons/svg/filled/shared-wallet.svg

<svg width="24" height="24" viewBox="0 0 24 24" fill="none" xmlns="http://www.w3.org/2000/svg">
<path fill-rule="evenodd" clip-rule="evenodd" d="M5 4.5C5 3.67157 5.67157 3 6.5 3H14.5C15.3284 3 16 3.67157 16 4.5V9.00427H15V4.5C15 4.22386 14.7761 4 14.5 4H6.5C6.22386 4 6 4.22386 6 4.5V16.5C6 16.7761 6.22386 17 6.5 17H11V18H6.5C5.67157 18 5 17.3284 5 16.5V4.5Z" fill="black"/>
<rect x="6" y="15" width="5" height="2" fill="black"/>
<path fill-rule="evenodd" clip-rule="evenodd" d="M12 11.5C12 10.6716 12.6716 10 13.5 10H17.5C18.3284 10 19 10.6716 19 11.5V19.5C19 20.3284 18.3284 21 17.5 21H13.5C12.6716 21 12 20.3284 12 19.5V11.5ZM13.5 11C13.2239 11 13 11.2239 13 11.5V19.5C13 19.7761 13.2239 20 13.5 20H17.5C17.7761 20 18 19.7761 18 19.5V11.5C18 11.2239 17.7761 11 17.5 11H13.5Z" fill="black"/>
<path d="M12.5 18.5H18.5V19.5C18.5 20.0523 18.0523 20.5 17.5 20.5H13.5C12.9477 20.5 12.5 20.0523 12.5 19.5V18.5Z" fill="black"/>
</svg>

<svg xmlns="http://www.w3.org/2000/svg" viewBox="0 0 24 24" fill="currentColor">
  <path fill-rule="evenodd" d="M5 4.5A1.5 1.5 0 016.5 3h8A1.5 1.5 0 0116 4.5v4.504h-1V4.5a.5.5 0 00-.5-.5h-8a.5.5 0 00-.5.5v12a.5.5 0 00.5.5H11v1H6.5A1.5 1.5 0 015 16.5v-12z" clip-rule="evenodd"/>
  <path d="M6 15h5v2H6z"/>
  <path fill-rule="evenodd" d="M12 11.5a1.5 1.5 0 011.5-1.5h4a1.5 1.5 0 011.5 1.5v8a1.5 1.5 0 01-1.5 1.5h-4a1.5 1.5 0 01-1.5-1.5v-8zm1.5-.5a.5.5 0 00-.5.5v8a.5.5 0 00.5.5h4a.5.5 0 00.5-.5v-8a.5.5 0 00-.5-.5h-4z" clip-rule="evenodd"/>
  <path d="M12.5 18.5h6v1a1 1 0 01-1 1h-4a1 1 0 01-1-1v-1z"/>
</svg>
